app/style/icons/privacyStandard.svg

<svg viewBox="0 0 150 150" xmlns="http://www.w3.org/2000/svg"><g fill="#2f74fb"><path d="m155.625 199.375h-130.687a.937.937 0 1 1 0-1.875h130.687a.937.937 0 1 1 0 1.875z" transform="translate(-15 -123.438)"/><path d="m155.625 199.375h-130.687a.937.937 0 1 1 0-1.875h130.687a.937.937 0 1 1 0 1.875z" transform="translate(-15 -123.438)"/><path d="m.937 66.562h16.875v16.875h-16.875z"/><path d="m16.875 176.875v15h-15v-15zm1.875-1.875h-18.75v18.75h18.75z" transform="translate(0 -109.375)"/><path d="m132.187 66.562h16.875v16.875h-16.875z"/><path d="m366.875 176.875v15h-15v-15zm1.875-1.875h-18.75v18.75h18.75z" transform="translate(-218.75 -109.375)"/><path d="m198.438 155.062a.928.928 0 0 1 -.937-.937v-130.688a.937.937 0 1 1 1.875 0v130.688a.928.928 0 0 1 -.938.937z" transform="translate(-123.438 -14.063)"/><path d="m198.438 155.062a.928.928 0 0 1 -.937-.937v-130.688a.937.937 0 1 1 1.875 0v130.688a.928.928 0 0 1 -.938.937z" transform="translate(-123.438 -14.063)"/><path d="m66.562 132.187h16.875v16.875h-16.875z"/><path d="m191.875 351.875v15h-15v-15zm1.875-1.875h-18.75v18.75h18.75z" transform="translate(-109.375 -218.75)"/><path d="m66.562.937h16.875v16.875h-16.875z"/><path d="m191.875 1.875v15h-15v-15zm1.875-1.875h-18.75v18.75h18.75z" transform="translate(-109.375)"/><path d="m75.706 168.044a.963.963 0 0 1 -.675-.262.906.906 0 0 1 0-1.312l92.437-92.437a.928.928 0 0 1 1.313 1.313l-92.4 92.4a.939.939 0 0 1 -.675.298z" transform="translate(-46.719 -46.094)"/><path d="m75.706 168.044a.963.963 0 0 1 -.675-.262.906.906 0 0 1 0-1.312l92.437-92.437a.928.928 0 0 1 1.313 1.313l-92.4 92.4a.939.939 0 0 1 -.675.298z" transform="translate(-46.719 -46.094)"/><path d="m19.687 113.437h16.875v16.875h-16.875z"/><path d="m66.875 301.875v15h-15v-15zm1.875-1.875h-18.75v18.75h18.75z" transform="translate(-31.25 -187.5)"/><path d="m113.437 19.687h16.875v16.875h-16.875z"/><path d="m316.875 51.875v15h-15v-15zm1.875-1.875h-18.75v18.75h18.75z" transform="translate(-187.5 -31.25)"/><path d="m167.106 168.044a.963.963 0 0 1 -.675-.262l-92.4-92.437a.928.928 0 0 1 1.313-1.312l92.4 92.4a.906.906 0 0 1 0 1.313.924.924 0 0 1 -.638.298z" transform="translate(-46.094 -46.094)"/><path d="m167.106 168.044a.963.963 0 0 1 -.675-.262l-92.4-92.437a.928.928 0 0 1 1.313-1.312l92.4 92.4a.906.906 0 0 1 0 1.313.924.924 0 0 1 -.638.298z" transform="translate(-46.094 -46.094)"/><path d="m113.437 113.437h16.875v16.875h-16.875z"/><path d="m316.875 301.875v15h-15v-15zm1.875-1.875h-18.75v18.75h18.75z" transform="translate(-187.5 -187.5)"/><path d="m19.687 19.687h16.875v16.875h-16.875z"/><path d="m66.875 51.875v15h-15v-15zm1.875-1.875h-18.75v18.75h18.75z" transform="translate(-31.25 -31.25)"/><circle cx="75" cy="75" r="37.5"/></g><circle cx="75" cy="75" fill="#70cbff" r="37.5"/><path d="m137.5 228.875a37.515 37.515 0 0 1 -37.425-35.175c-.037.788-.075 1.538-.075 2.325a37.5 37.5 0 0 0 75 0c0-.788-.037-1.575-.075-2.325a37.515 37.515 0 0 1 -37.425 35.175z" fill="#2f74fb" transform="translate(-62.5 -121.063)"/><path d="m159.438 162.5a28.1 28.1 0 0 0 -24.338 14.063 28.134 28.134 0 0 0 48.712 0 28.2 28.2 0 0 0 -24.374-14.063z" fill="#fff" transform="translate(-84.438 -101.563)"/><path d="m181.813 192.325a10.313 10.313 0 1 1 10.313-10.312 10.307 10.307 0 0 1 -10.313 10.312z" fill="#fff" transform="translate(-107.188 -107.313)"/><path d="m180.25 171.075a9.375 9.375 0 1 1 -9.375 9.375 9.378 9.378 0 0 1 9.375-9.375m0-1.875a11.25 11.25 0 1 0 11.25 11.25 11.235 11.235 0 0 0 -11.25-11.25z" fill="#2f74fb" transform="translate(-105.625 -105.75)"/><circle cx="74.999" cy="74.999" fill="#2f74fb" r="4.687"/><path d="m208.85 176.4-8.85 8.85h12.563z" fill="#fff" transform="translate(-125 -110.25)"/><path d="m133.572 176a.891.891 0 0 1 -.45-.113.925.925 0 0 1 -.337-1.275 29.066 29.066 0 0 1 50.325 0 .933.933 0 1 1 -1.613.938 27.176 27.176 0 0 0 -47.062 0 1.1 1.1 0 0 1 -.863.45z" fill="#2f74fb" transform="translate(-82.91 -100.064)"/></svg>

<svg xmlns="http://www.w3.org/2000/svg" viewBox="0 0 150 150"><defs><style>.a{fill:#2f74fb;}.b{fill:#70cbff;}.c{fill:#fff;}</style></defs><g transform="translate(-189 -329)"><g transform="translate(189 329)"><g transform="translate(9 74.062)"><path class="a" d="M155.625,199.375H24.938a.937.937,0,1,1,0-1.875H155.625a.937.937,0,1,1,0,1.875Z" transform="translate(-24 -197.5)"/></g><g transform="translate(9 74.062)"><path class="a" d="M155.625,199.375H24.938a.937.937,0,1,1,0-1.875H155.625a.937.937,0,1,1,0,1.875Z" transform="translate(-24 -197.5)"/></g><g transform="translate(0.937 66.562)"><rect class="a" width="16.875" height="16.875"/></g><g transform="translate(0 65.625)"><path class="a" d="M16.875,176.875v15h-15v-15h15M18.75,175H0v18.75H18.75Z" transform="translate(0 -175)"/></g><g transform="translate(132.187 66.562)"><rect class="a" width="16.875" height="16.875"/></g><g transform="translate(131.25 65.625)"><path class="a" d="M366.875,176.875v15h-15v-15h15M368.75,175H350v18.75h18.75Z" transform="translate(-350 -175)"/></g><g transform="translate(74.062 8.437)"><path class="a" d="M198.438,155.062a.928.928,0,0,1-.937-.937V23.437a.937.937,0,1,1,1.875,0V154.125A.928.928,0,0,1,198.438,155.062Z" transform="translate(-197.5 -22.5)"/></g><g transform="translate(74.062 8.437)"><path class="a" d="M198.438,155.062a.928.928,0,0,1-.937-.937V23.437a.937.937,0,1,1,1.875,0V154.125A.928.928,0,0,1,198.438,155.062Z" transform="translate(-197.5 -22.5)"/></g><g transform="translate(66.562 132.187)"><rect class="a" width="16.875" height="16.875"/></g><g transform="translate(65.625 131.25)"><path class="a" d="M191.875,351.875v15h-15v-15h15M193.75,350H175v18.75h18.75Z" transform="translate(-175 -350)"/></g><g transform="translate(66.562 0.937)"><rect class="a" width="16.875" height="16.875"/></g><g transform="translate(65.625)"><path class="a" d="M191.875,1.875v15h-15v-15h15M193.75,0H175V18.75h18.75Z" transform="translate(-175)"/></g><g transform="translate(28.031 27.656)"><path class="a" d="M75.706,168.044a.963.963,0,0,1-.675-.262.906.906,0,0,1,0-1.312l92.437-92.437a.928.928,0,0,1,1.313,1.313l-92.4,92.4A.939.939,0,0,1,75.706,168.044Z" transform="translate(-74.75 -73.75)"/></g><g transform="translate(28.031 27.656)"><path class="a" d="M75.706,168.044a.963.963,0,0,1-.675-.262.906.906,0,0,1,0-1.312l92.437-92.437a.928.928,0,0,1,1.313,1.313l-92.4,92.4A.939.939,0,0,1,75.706,168.044Z" transform="translate(-74.75 -73.75)"/></g><g transform="translate(19.687 113.437)"><rect class="a" width="16.875" height="16.875"/></g><g transform="translate(18.75 112.5)"><path class="a" d="M66.875,301.875v15h-15v-15h15M68.75,300H50v18.75H68.75Z" transform="translate(-50 -300)"/></g><g transform="translate(113.437 19.687)"><rect class="a" width="16.875" height="16.875"/></g><g transform="translate(112.5 18.75)"><path class="a" d="M316.875,51.875v15h-15v-15h15M318.75,50H300V68.75h18.75Z" transform="translate(-300 -50)"/></g><g transform="translate(27.656 27.656)"><path class="a" d="M167.106,168.044a.963.963,0,0,1-.675-.262l-92.4-92.437a.928.928,0,0,1,1.313-1.312l92.4,92.4a.906.906,0,0,1,0,1.313A.924.924,0,0,1,167.106,168.044Z" transform="translate(-73.75 -73.75)"/></g><g transform="translate(27.656 27.656)"><path class="a" d="M167.106,168.044a.963.963,0,0,1-.675-.262l-92.4-92.437a.928.928,0,0,1,1.313-1.312l92.4,92.4a.906.906,0,0,1,0,1.313A.924.924,0,0,1,167.106,168.044Z" transform="translate(-73.75 -73.75)"/></g><g transform="translate(113.437 113.437)"><rect class="a" width="16.875" height="16.875"/></g><g transform="translate(112.5 112.5)"><path class="a" d="M316.875,301.875v15h-15v-15h15M318.75,300H300v18.75h18.75Z" transform="translate(-300 -300)"/></g><g transform="translate(19.687 19.687)"><rect class="a" width="16.875" height="16.875"/></g><g transform="translate(18.75 18.75)"><path class="a" d="M66.875,51.875v15h-15v-15h15M68.75,50H50V68.75H68.75Z" transform="translate(-50 -50)"/></g><g transform="translate(37.5 37.5)"><circle class="a" cx="37.5" cy="37.5" r="37.5"/></g><g transform="translate(37.5 37.5)"><circle class="b" cx="37.5" cy="37.5" r="37.5"/></g><g transform="translate(37.5 72.637)"><path class="a" d="M137.5,228.875A37.515,37.515,0,0,1,100.075,193.7c-.037.788-.075,1.538-.075,2.325a37.5,37.5,0,0,0,75,0c0-.788-.037-1.575-.075-2.325A37.515,37.515,0,0,1,137.5,228.875Z" transform="translate(-100 -193.7)"/></g><g transform="translate(50.662 60.937)"><path class="c" d="M159.438,162.5A28.1,28.1,0,0,0,135.1,176.563a28.134,28.134,0,0,0,48.712,0A28.2,28.2,0,0,0,159.438,162.5Z" transform="translate(-135.1 -162.5)"/></g><g transform="translate(63.375 63.45)"><g transform="translate(0.937 0.937)"><path class="c" d="M181.813,192.325a10.313,10.313,0,1,1,10.313-10.312h0A10.307,10.307,0,0,1,181.813,192.325Z" transform="translate(-171.5 -171.7)"/></g><path class="a" d="M180.25,171.075a9.375,9.375,0,1,1-9.375,9.375h0a9.378,9.378,0,0,1,9.375-9.375m0-1.875a11.25,11.25,0,1,0,11.25,11.25,11.235,11.235,0,0,0-11.25-11.25Z" transform="translate(-169 -169.2)"/></g><g transform="translate(70.312 70.312)"><circle class="a" cx="4.687" cy="4.687" r="4.687"/></g><g transform="translate(75 66.15)"><path class="c" d="M208.85,176.4,200,185.25h12.563Z" transform="translate(-200 -176.4)"/></g><g transform="translate(49.746 60.038)"><path class="a" d="M133.572,176a.891.891,0,0,1-.45-.113.925.925,0,0,1-.337-1.275,29.066,29.066,0,0,1,50.325,0,.933.933,0,1,1-1.613.938,27.176,27.176,0,0,0-47.062,0A1.1,1.1,0,0,1,133.572,176Z" transform="translate(-132.656 -160.102)"/></g></g></g></svg>
